public/fonts/icons/toggle-right.svg

<?xml version="1.0" encoding="utf-8"?>

<!DOCTYPE svg PUBLIC "-//W3C//DTD SVG 1.1//EN" "http://www.w3.org/Graphics/SVG/1.1/DTD/svg11.dtd">
<svg version="1.1" xmlns="http://www.w3.org/2000/svg" xmlns:xlink="http://www.w3.org/1999/xlink" width="32" height="32" viewBox="0 0 32 32">
<g>
</g>
	<path d="M4 32c0 0 20 0 24 0s4-4 4-4v-24c0-4-3.938-4-3.938-4s-20.187 0-24.062 0-4 4-4 4 0 20 0 24 4 4 4 4zM4 6c0-1.104 0.896-2 2-2v0 0h20c1.104 0 2 0.896 2 2v20c0 1.104-0.896 2-2 2h-20c-1.104 0-2-0.896-2-2v-20zM22 6l-10 10 10 10v-20z" fill="#000000"></path>
</svg>

<svg xmlns="http://www.w3.org/2000/svg" width="32" height="32" viewBox="0 0 32 32"><title>Toggle Right</title><path d="M4 32h24c4 0 4-4 4-4V4c0-4-3.938-4-3.938-4H4C.125 0 0 4 0 4v24c0 4 4 4 4 4zM4 6a2 2 0 0 1 2-2h20a2 2 0 0 1 2 2v20a2 2 0 0 1-2 2H6a2 2 0 0 1-2-2V6zm18 0L12 16l10 10V6z"/></svg>
